material/.icons/material/car-seat-cooler.svg

<svg xmlns="http://www.w3.org/2000/svg" viewBox="0 0 24 24"><path d="M20.8 10.2l-1.4.4-1.2-.7V8.2l1.2-.7 1.4.4.3-1.1-1.1-.3.3-1.1-1.1-.3-.4 1.4-1.2.7-1.5-.9V5l1-1-.8-.8-.8.8-.8-.8-.8.8 1 1v1.3l-1.5.9-1.2-.7-.3-1.4-1.1.3.3 1.1-1.1.2.3 1.1 1.4-.4 1.2.7v1.7l-1.2.7-1.4-.4-.3 1.3 1.1.3-.3 1 1.1.3.4-1.4 1.2-.7 1.5.9v1.3l-1 1 .8.8.8-.8.8.8.8-.8-1-1v-1.3l1.5-.9 1.2.7.4 1.4 1.1-.3-.4-1.1 1.1-.3-.3-1.1m-6.8-2l1.5-.9 1.5.9v1.7l-1.5.9-1.5-.9V8.2M5 18S2 10 2 6s2-4 2-4h1s1 0 1 1-1 1-1 3 3 4 3 7-3 5-3 5m10-1c1.1 0 2 .9 2 2v1c0 1.1-.9 2-2 2H9c-2 0-3-1.8-3-1.8-.2-.2-.3-.6 0-.8 0 0 3-2.5 4-2.5h5z"/></svg>

<?xml version="1.0" encoding="UTF-8"?><!DOCTYPE svg PUBLIC "-//W3C//DTD SVG 1.1//EN" "http://www.w3.org/Graphics/SVG/1.1/DTD/svg11.dtd"><svg xmlns="http://www.w3.org/2000/svg" xmlns:xlink="http://www.w3.org/1999/xlink" version="1.1" id="mdi-car-seat-cooler" width="24" height="24" viewBox="0 0 24 24"><path d="M20.8 10.2L19.4 10.6L18.2 9.9V8.2L19.4 7.5L20.8 7.9L21.1 6.8L20 6.5L20.3 5.4L19.2 5.1L18.8 6.5L17.6 7.2L16.1 6.3V5L17.1 4L16.3 3.2L15.5 4L14.7 3.2L13.9 4L14.9 5V6.3L13.4 7.2L12.2 6.5L11.9 5.1L10.8 5.4L11.1 6.5L10 6.7L10.3 7.8L11.7 7.4L12.9 8.1V9.8L11.7 10.5L10.3 10.1L10 11.4L11.1 11.7L10.8 12.7L11.9 13L12.3 11.6L13.5 10.9L15 11.8V13.1L14 14.1L14.8 14.9L15.6 14.1L16.4 14.9L17.2 14.1L16.2 13.1V11.8L17.7 10.9L18.9 11.6L19.3 13L20.4 12.7L20 11.6L21.1 11.3L20.8 10.2M14 8.2L15.5 7.3L17 8.2V9.9L15.5 10.8L14 9.9V8.2M5 18C5 18 2 10 2 6S4 2 4 2H5C5 2 6 2 6 3S5 4 5 6 8 10 8 13 5 18 5 18M15 17C16.1 17 17 17.9 17 19V20C17 21.1 16.1 22 15 22H9C7 22 6 20.2 6 20.2C5.8 20 5.7 19.6 6 19.4C6 19.4 9 16.9 10 16.9H15Z" /></svg>
